!!!!SEGMENT: pl-kk--kk-i-8--003_anonim--caeli-iubar.krn
!!!cenid: 16xx:1143
!!!COM: Anonim
!!!COM-rismID: pe30004985
!!!CDT:
!!!CNT:
!!!OTL: Caeli iubar
!!!PDT:
!!!AGN: Sacred
!!!SMS-siglum: PL-Kk
!!!SMS-shelfmark: Kk.I.8
!!!SMS-shelfwork: 003 W
!!!SMS-variant:
!!!SMS-altvar:
!!!NIFC-rismSourceID: 1001148289
!!!NIFC-islandoraID: pl-kk:2296
!!!URL-pdf-islandora: https://repozytorium.nifc.pl/islandora/object/pl-kk%3A2296/datastream/PDF/view
!!!URL-scan: https://polish.musicsources.pl/pl/lokalizacje/galeria/rekopisy/6141 @EN{Scan on Polish Music Sources Website} @PL{Skany w portalu Dziedzictwo Muzyki Polskiej w otwartym dostępie}
!!!ONB-nifc: UWAGA: A (skan 0003), T1 (0026), T2 (0050), B (0073). Następny utwór: Regina terrae Regina caeli
!!!AIN: 1 alto 1 bass 2 tenor
!!!key:
**kern	**text	**text	**kern	**text	**text	**kern	**text	**text	**kern	**text	**text
*part4	*part4	*part4	*part3	*part3	*part3	*part2	*part2	*part2	*part1	*part1	*part1
*staff4	*staff4	*staff4	*staff3	*staff3	*staff3	*staff2	*staff2	*staff2	*staff1	*staff1	*staff1
*Ibass	*	*	*Itenor	*	*	*Itenor	*	*	*Ialto	*	*
*I"[BASSVS.]	*	*	*I"[TENOR 2dus.]	*	*	*I"[Tenore 1mo]	*	*	*I"[alto.]	*	*
*I'B.	*	*	*I'T. 2	*	*	*I'T. 1	*	*	*I'A.	*	*
*clefF4	*	*	*clefC4	*	*	*clefC4	*	*	*clefC3	*	*
*k[b-]	*	*	*k[b-]	*	*	*k[b-]	*	*	*k[b-]	*	*
*F:	*	*	*F:	*	*	*F:	*	*	*F:	*	*
*M3/1	*	*	*M3/1	*	*	*M3/1	*	*	*M3/1	*	*
=1	=1	=1	=1	=1	=1	=1	=1	=1	=1	=1	=1
!!LO:TX:t=P:problem:w utworze duży problem z akcydencjami (braki, krzyżyki zamiast kasowników), rozbieżnśoci w pionach harmonicznych
!	!	!	!LO:TX:t=P:problem=all\right&colon; global	!	!	!LO:TX:t=P:problem=all\right&colon; global	!	!	!LO:TX:t=P:problem=all\right&colon; global	!	!
0F	1 C(ae)-	4 De-	0A	1 C(ae)-	4 De-	0c	1 C(ae)-	4 De-	1f	1 C(ae)-	4 De-
.	.	.	.	.	.	.	.	.	1f	-li	-ſi-
1D	-li	-si-	1B-	-li	-ſi-	1d	-li	-ſi-	1f	ju-	-de-
=2	=2	=2	=2	=2	=2	=2	=2	=2	=2	=2	=2
!LO:TX:a:t=P:problem=♭ above	!	!	!	!	!	!	!	!	!	!	!
1E-X	iu-	-de-	1G	iu-	-de-	1B-	iu-	-de-	0e-X	-bar	-ra-
1E-	-bar	-ra-	1G	-bar	-ra-	1B-	-bar	-ra-	.	.	.
1C	Cla-	-ta	1A	cla-	-ta	1c	cla-	-ta	1e-	Cla-	-ta
=3	=3	=3	=3	=3	=3	=3	=3	=3	=3	=3	=3
1.D	-riſ-	Pa-	1.F#X	-riſ-	pa-	1.A	-riſ-	Pa-	1.d	-riſ-	Pa-
2D/	-si-	-tri-	2F#/	-si-	-tri-	2A/	-si-	-tri-	2d\	-ſi-	-tri-
1D	-ma	-bus	1F#	-mu(m)	-bus	1A	-mu(m)	-bus	1d	-ma	-b(us)
=4	=4	=4	=4	=4	=4	=4	=4	=4	=4	=4	=4
!	!	!	!LO:SIC:v:s=0F#	!	!	!	!	!	!	!	!
0D	ter-	iu-	0F	ter-	iu-	0A	ter-	iu-	1r	.	.
.	.	.	.	.	.	.	.	.	1d	ter-	Iu-
!LO:TX:t=P:problem=prawdopodobnie oznaczenie b.c.	!	!	!	!	!	!	!	!	!	!	!
!LO:TX:a:t=P:problem=♭ above	!	!	!	!	!	!	!	!	!	!	!
1-XG	-r(ae)	-cun-	1G	-r(ae)	-cun-	1B-	-r(ae)	-cun-	1d	-r(ae)	-cun-
=5	=5	=5	=5	=5	=5	=5	=5	=5	=5	=5	=5
1F	de-	-da	1A	de-	-da	1c	de-	-da	1f	de-	-da
!	!	!	!LO:N:acc=#	!	!	!	!	!	!	!	!
1D	-cus	c(ae)-	1Bn	-cus	c(ae)-	1d	-c(us)	c(ae)-	1f	-cus	c(ae)-
!	!	!	!	!	!	!	!	!	!LO:TX:a:t=P:problem=♭ above	!	!
1C	pul-	-li	1c	pul-	-li	1e-X	pul-	-li	2e-X\	pul-	-li
.	.	.	.	.	.	.	.	.	2f\	.	.
=6	=6	=6	=6	=6	=6	=6	=6	=6	=6	=6	=6
!	!	!	!LO:N:acc=#	!	!	!	!	!	!	!	!
1.G	-cher-	se-	1.Bn	-cher-	ſe-	1.d	-cher-	se-	1.g	-chêr-	de-
*2\right	*	*	*2\right	*	*	*2\right	*	*	*	*	*
2G\	-ri-	-di-	2B\	-ri-	-di-	2d\	-ri-	-di-	2g\	-ri-	-i-
1G	-mu(m)	-bus	1B	-mu(m)	-bus	1d	-mu(m)	-bus	1g	-mu(m)	-b(us)
=7	=7	=7	=7	=7	=7	=7	=7	=7	=7	=7	=7
1C	An-	dans	1c	An-	dans	1e-X	An-	dans	1g	An-	danſ
!	!	!	!	!	!	!	!	!	!LO:TX:a:t=P:problem=♭ above	!	!
1C	-ge-	pu-	1c	-ge-	pu-	1e-	-ge-	pu-	1e-X	-ge-	pu-
!	!	!	!LO:TX:a:t=P:problem=♭ above	!	!	!	!	!	!	!	!
1D	.	-ra	1B-X	.	-ra	1d	.	-ra	1f	-lo-	-ra
=8	=8	=8	=8	=8	=8	=8	=8	=8	=8	=8	=8
1.F	-lo-	no-	1.A	-lo-	no-	1.c	-lo-	no-	0.f	-ru(m)	no-
!LO:TX:a:t=P:problem=♭ above	!	!	!	!	!	!	!	!	!	!	!
2E-X/	.	.	4B-\	-rum	.	4d\	.	.	.	.	.
.	.	.	4c\	.	.	4e\	.	.	.	.	.
1D	-rum	.	1d	.	.	1f	-rum	.	.	.	.
=9	=9	=9	=9	=9	=9	=9	=9	=9	=9	=9	=9
!LO:TX:t=P:problem=prawdopodobnie oznaczenie b.c.	!	!	!	!	!	!	!	!	!	!	!
!LO:TX:a:t=P:problem=♭ above	!	!	!	!	!	!	!	!	!	!	!
1C-	de-	-bis	1c	de-	-bis	1e-X	de-	-bis	1g	(de)-	-[bis]
1.G	-li-	pec-	1.c	-li-	pec-	1.d	-li-	pe-	1.g	-li-	pec-
!	!	!	!LO:N:acc=#	!	!	!	!	!	!	!	!
2G\	-ci-	-to-	2Bn\	-ci-	-to-	2d\	-ci-	-cto-	2g\	-ti-	-to-
=10	=10	=10	=10	=10	=10	=10	=10	=10	=10	=10	=10
0.C	-um	-ra	0.c	-um	-ra	0.c	-um	-ra	0.e	-u(m)	-ra
=11	=11	=11	=11	=11	=11	=11	=11	=11	=11	=11	=11
!	!	!	!LO:N:acc=#	!	!	!	!	!	!	!	!
1r	.	.	1En	Laus	pel-	1G	Laus	pel-	1r	.	.
1AA	Laus	pel-	1A	.	-len-	1c	pri-	-lens-	1c	laus	pel-
1D	pri-	-len-	1F#X	pri-	-q(ue)	1A	-ma	-q(ue)	1f	pri-	-lens-
=12	=12	=12	=12	=12	=12	=12	=12	=12	=12	=12	=12
!	!	!	!LO:TX:a:t=P:problem=♭ above	!	!	!	!	!	!	!	!
1BB-	-ma	-q(ue)	1B-X	-ma	cor-	1d	ſal-	cor-	1d	-ma	-q(ue)
!LO:TX:a:t=P:problem=♭ above	!	!	!	!	!	!	!	!	!	!	!
1E-X	ſal-	cor-	1G	ſal-	-de	1B-	-ue	-de	1g	ſal-	cor-
*	*	*	*	*	*ij	*	*	*ij	*	*	*
!	!	!	!	!	!	!	!	!	!LO:TX:a:t=P:problem=♭ above	!	!
1C	-ue	-de	2c\	-ue	cor-	2e-X\	ſal-	cor-	1e-X	-ve	-de
.	.	.	2B-\	.	.	2d\	.	.	.	.	.
=13	=13	=13	=13	=13	=13	=13	=13	=13	=13	=13	=13
*	*	*ij	*	*	*	*	*	*	*	*	*
2F\	ſal-	cor-	2A\	ſal-	.	2c\	-ue	.	0.f	ſal-	Cor-
2E\	.	.	4B-\	.	.	4d\	.	.	.	.	.
.	.	.	4c\	.	.	4e\	.	.	.	.	.
2D\	.	.	0d	.	.	0f	.	-de	.	.	.
*	*	*	*	*	*	*	*	*Xij	*	*	*
2C\	.	.	.	.	.	.	.	.	.	.	.
!LO:TX:a:t=P:problem=♭ above	!	!	!	!	!	!	!	!	!	!	!
1BB-X	.	.	.	.	.	.	.	.	.	.	.
=14	=14	=14	=14	=14	=14	=14	=14	=14	=14	=14	=14
1AA	-ue	-de	1c	-ue	-de	1F	Vir-	fri-	1f	-ve	-de
*	*	*Xij	*	*	*Xij	*	*	*	*	*	*
1.C	Vir-	fri-	1.c	Vir-	fri-	1.G	.	.	1.f	Vir-	fri-
2C/	-gi-	-go-	2c\	-gi-	-go-	2G/	-gi-	-go-	2e\	-gi-	-go-
=15	=15	=15	=15	=15	=15	=15-	=15-	=15-	=15	=15	=15
0.FF;	-num	-ra	0.c;<	-num	-ra	0.A	-num	-ra.	0.f;;	-nu(m)	-ra
!LO:LB:g=original	!	!	!LO:LB:g=original	!	!	!LO:LB:g=original	!	!	!LO:LB:g=original	!	!
=16||	=16||	=16||	=16||	=16||	=16||	=16||	=16||	=16||	=16||	=16||	=16||
*M3/1	*	*	*M3/1	*	*	*M3/1	*	*	*M3/1	*	*
0F	2 Sal-	.	0A	2 Sal-	.	0c	2 Sal-	.	0f	2 Sal-	.
1D	-ue	.	1B-	-ue	.	1d	-ue	.	1f	-ve	.
=17	=17	=17	=17	=17	=17	=17	=17	=17	=17	=17	=17
!LO:TX:a:t=P:problem=♭ above	!	!	!	!	!	!	!	!	!	!	!
1E-X	mun-	.	1G	mun-	.	1B-	mun-	.	1e	Mun-	.
1E-	-di	.	1G	-di	.	1B-	-di	.	1e	-di	.
1C	lux	.	2G/	lux	.	1c	lux	.	1e	lux	.
.	.	.	2A/	.	.	.	.	.	.	.	.
=18	=18	=18	=18	=18	=18	=18	=18	=18	=18	=18	=18
!	!	!	!LO:N:acc=#	!	!	!	!	!	!	!	!
1.G	in-	.	1.Bn	in-	.	1.d	in-	.	1.g	in-	.
2G\	-cli-	.	2B\	-cli-	.	2d\	-cli-	.	2g\	-cly-	.
1G	-ta	.	1B	-ta	.	1d	-ta	.	1g	-ta	.
=19	=19	=19	=19	=19	=19	=19	=19	=19	=19	=19	=19
1G	et	.	1B-	et	.	1d	et	.	1g	et	.
!	!	!	!	!	!	!	!	!	!LO:SIC:v:s=1e-	!	!
1c	nu-	.	1c	nu-	.	1e-X	nu-	.	1e	nu-	.
1B-	-be	.	1d	-be	.	1d	-be	.	1f	-be	.
=20	=20	=20	=20	=20	=20	=20	=20	=20	=20	=20	=20
!LO:TX:a:t=P:problem=♭ above	!	!	!	!	!	!	!	!	!	!	!
1.E-X	car-	.	1.G	car-	.	0.e	car-	.	1.g	car-	.
!LO:TX:a:t=P:problem=# above	!	!	!	!	!	!	!	!	!	!	!
2F#X\	.	.	2A/	.	.	.	.	.	2f\	.	.
1G	.	.	1B-	.	.	.	.	.	1e	-nis	.
=21-	=21-	=21-	=21	=21	=21	=21	=21	=21	=21	=21	=21
!	!	!	!	!	!	!LO:TX:a:t=P:problem=♭ above	!	!	!	!	!
1An	-nis	.	1c	-nis	.	1e-X	-nis	.	1a-X	.	.
!	!	!	!LO:TX:a:t=P:problem=♭ above	!	!	!	!	!	!	!	!
1.B-	con-	.	1.B-X	con-	.	1.e-	con-	.	1.f	con-	.
2B-\	-di-	.	2B-\	-di-	.	2d\	-di-	.	2f\	-di-	.
=22	=22	=22	=22	=22	=22	=22	=22	=22	=22	=22	=22
!LO:TX:a:t=P:problem=♭ above	!	!	!LO:TX:a:t=P:problem=♭ above	!	!	!	!	!	!	!	!
0.E-X	-ta	.	0.B-X	-ta	.	0e,	-ta	.	0e,<	-ta	.
.	.	.	.	.	.	1e	in	.	1g	in	.
=23	=23	=23	=23	=23	=23	=23	=23	=23	=23	=23	=23
1r	.	.	1r	.	.	1.e	nu-	.	1.g	nu-	.
1r	.	.	1r	.	.	.	.	.	.	.	.
.	.	.	.	.	.	4f\	.	.	4a\	.	.
.	.	.	.	.	.	4e\	.	.	4g\	.	.
1F	in	.	1A	in	.	2d\	.	.	2f\	.	.
!	!	!	!	!	!	!	!	!	!LO:TX:t=P:problem=nuta nie w pełni widoczna - zagięcie karty	!	!
.	.	.	.	.	.	2c\	.	.	2eyy\	.	.
=24	=24	=24	=24	=24	=24	=24	=24	=24	=24	=24	=24
!	!	!	!LO:TX:a:t=P:problem=♭ above	!	!	!	!	!	!	!	!
1.G	nu-	.	1.B-X	nu-	.	1B-	.	.	1d	.	.
.	.	.	.	.	.	1B-	-be	.	1d	-be	.
!LO:TX:a:t=P:problem=♮ above	!	!	!	!	!	!	!	!	!	!	!
4An\	.	.	4c\	.	.	.	.	.	.	.	.
4G\	.	.	4B-\	.	.	.	.	.	.	.	.
!	!	!	!	!	!	!	!	!	!LO:TX:t=P:problem=e1 lub f1	!	!
2F\	.	.	2A/	.	.	1c	in	.	1e	in	.
2E\	.	.	2G/	.	.	.	.	.	.	.	.
=25	=25	=25	=25	=25	=25	=25	=25	=25	=25	=25	=25
1D	.	.	1F	.	.	1.d	nu-	.	1.f	nu-	.
1D	-be	.	1F	-be	.	.	.	.	.	.	.
!	!	!	!	!	!	!LO:TX:a:t=P:problem=♭ above	!	!	!	!	!
.	.	.	.	.	.	4e-X\	.	.	4g\	.	.
.	.	.	.	.	.	4d\	.	.	4f\	.	.
!LO:TX:a:t=P:problem=♮\♭ above	!	!	!	!	!	!	!	!	!	!	!
1En	in	.	1G	in	.	2c\	.	.	2e\	.	.
.	.	.	.	.	.	2B-\	.	.	2d\	.	.
=26	=26	=26	=26	=26	=26	=26	=26	=26	=26	=26	=26
1.F	nu-	.	1.A	nu-	.	1A	.	.	1c	.	.
!	!	!	!	!	!	!	!	!	!LO:TX:t=P::problem=t. 26-32&colon; albo przebicia nut z drugiej strony karty,\nalbo przeróbki wysokości i wartości nut	!	!
.	.	.	.	.	.	1A	-be	.	1c	-be	.
4G\	.	.	4B-/	.	.	.	.	.	.	.	.
4F\	.	.	4A/	.	.	.	.	.	.	.	.
*	*	*	*	*	*	*	*ij	*	*	*ij	*
!LO:TX:a:t=P:problem=♮\♭ above	!	!	!	!	!	!	!	!	!	!	!
2En\	.	.	2G/	.	.	1B-	nu-	.	1d	in	.
2D\	.	.	2F/	.	.	.	.	.	.	.	.
=27	=27	=27	=27	=27	=27	=27	=27	=27	=27	=27	=27
1.C	.	.	1G	.	.	1.c	.	.	1e	nu-	.
.	.	.	1G	-be	.	.	.	.	1.e	-be	.
*	*	*	*	*	*	*	*	*	*	*Xij	*
2C/	-be	.	.	.	.	2c\	-be	.	.	.	.
*	*	*	*	*	*	*	*Xij	*	*	*	*
1D	nu-	.	1F	nu-	.	1B-	nu-	.	.	.	.
.	.	.	.	.	.	.	.	.	2d\	nu-	.
=28	=28	=28	=28	=28	=28	=28	=28	=28	=28	=28	=28
1D	-bis	.	1F	-bis	.	1B-	-bis	.	1f	-biſ	.
1.F	ne-	.	1.F	ne-	.	1.B-	ne-	.	1.c	ne-	.
2F\	-ſci-	.	2F/	-ſci-	.	2A\	-ſci-	.	2c/	-ſci-	.
=29	=29	=29	=29	=29	=29	=29	=29	=29	=29	=29	=29
0.BB-	-a	.	0.F	-a	.	2B-\	-a	.	2B-/	.	.
.	.	.	.	.	.	2d\	.	.	2b-\	-a	.
.	.	.	.	.	.	1d	nul-	.	1f	nul-	.
.	.	.	.	.	.	1e	-li-	.	1g	.	.
=30	=30	=30	=30	=30	=30	=30	=30	=30	=30	=30	=30
!	!	!	!	!	!	!	!	!	!LO:TX:a:t=P:problem=♭ above	!	!
1F	nul-	.	1%3r	.	.	1.f	-q(ue)	.	1.a-X	-li-	.
1C	-li-	.	.	.	.	.	.	.	.	.	.
.	.	.	.	.	.	2e\	la-	.	2g\	-q(ue)	.
1D	-q(ue)	.	.	.	.	1d	.	.	1f	la-	.
=31	=31	=31	=31	=31	=31	=31	=31	=31	=31	=31	=31
0C	la-	.	1c	nul-	.	1.e-X	.	.	1g	.	.
!	!	!	!	!	!	!	!	!	!LO:TX:a:t=P:problem=♭ above	!	!
.	.	.	1G	-li-	.	.	.	.	1g-X	.	.
.	.	.	.	.	.	4f\	.	.	.	.	.
.	.	.	.	.	.	4e-\	.	.	.	.	.
1C	-bi	.	1A	-q(ue)	.	2d\	.	.	2f\	.	.
.	.	.	.	.	.	2c\	.	.	2e\	.	.
=32	=32	=32	=32	=32	=32	=32	=32	=32	=32	=32	=32
!	!	!	!LO:TX:a:t=P:problem=♭ above	!	!	!	!	!	!	!	!
1G	nul-	.	1B-X	la-	.	1B-	-bi	.	1d	.	.
1G	-li-	.	1B-	-bi	.	1B-	nul-	.	1d	-bi	.
!	!	!	!	!	!	!LO:TX:a:t=P:problem=♭ above	!	!	!	!	!
1E-X	-q(ue)	.	1G	nul-	.	1e-X	-li-	.	1g	nul-	.
=33	=33	=33	=33	=33	=33	=33	=33	=33	=33	=33	=33
2F\	la-	.	(2A\	-li-	.	1.d	-q(ue)	.	1.f	-li-	.
2E\	.	.	2G\)	.	.	.	.	.	.	.	.
2F\	.	.	(2A\	-q(ue)	.	.	.	.	.	.	.
2G\	.	.	2B-\)	.	.	2d\	la-	.	2f\	-q(ue)	.
!	!	!	!	!	!	!	!	!	!LO:TX:a:t=vi	!	!
1A-X	.	.	1c	la-	.	1c	-bi	.	1e	la-	.
!	!	!	!	!	!	!	!	!	!LO:LB:g=original	!	!
=34	=34	=34	=34	=34	=34	=34	=34	=34	=34	=34	=34
!	!	!	!	!	!	!	!	!	!LO:TX:t=P:problem=t. 34-35 zapisane powyżej pięciolinii	!	!
!LO:TX:a:t=P:problem=♭ above	!	!	!	!	!	!	!	!	!LO:TX:a:t=de	!	!
1E-X	-bi	.	1G	-bi	.	1c	pr(ae)-	.	1f	-bi	.
1.G	pr(ae)-	.	1.G	pr(ae)-	.	1.c	-ui-	.	1.d	pr(ae)-	.
!	!	!	!	!	!	!LO:N:acc=#	!	!	!	!	!
!	!	!	!	!	!	!LO:TX:b:t=P:problem=# below	!	!	!	!	!
2G\	-ui-	.	2G/	-ui-	.	2Bn\	.	.	2d\	-ui-	.
=35	=35	=35	=35-	=35-	=35-	=35-	=35-	=35-	=35	=35	=35
0.C;<	-a	.	0.G;<	-a	.	0.c	-a	.	0.c;;	-a	.
!LO:LB:g=original	!	!	!LO:LB:g=original	!	!	!LO:LB:g=original	!	!	!LO:LB:g=original	!	!
=36||	=36||	=36||	=36||-	=36||-	=36||-	=36||-	=36||-	=36||-	=36||-	=36||-	=36||-
*M3/1	*	*	*M3/1	*	*	*M3/1	*	*	*M3/1	*	*
0C	3 Sal-	.	0c	3 Sal-	.	0e-X	3 Sal-	.	0g	3 ſal-	.
1C	-ue	.	1c	-ue	.	1f	-ue	.	1a-X	-ve	.
=37	=37	=37	=37	=37	=37	=37	=37	=37	=37	=37	=37
*	*	*	*	*	*	*	*	*	*	*ij	*
0C	ſal-	.	0d	ſal-	.	0d	ſal-	.	0f	ſal-	.
!LO:N:acc=#	!	!	!	!	!	!	!	!	!	!	!
1BBn	-ue	.	1d	-ue	.	1d	-ue	.	1f	-ve	.
*	*	*	*	*	*	*	*	*	*	*Xij	*
=38	=38	=38	=38	=38	=38	=38	=38	=38	=38	=38	=38
!	!	!	!	!	!	!	!	!	!LO:TX:a:t=P:problem=♭ above	!	!
1C	fra-	.	1G	fra-	.	1c	fra-	.	1e-X	fra-	.
1A-X	-grans	.	1A-X	-grans	.	1c	-grans	.	1e-	-grans	.
1F	ar-	.	1A-	ar-	.	1A	ar-	.	1f	ar-	.
=39	=39	=39	=39	=39	=39	=39	=39	=39	=39	=39	=39
!	!	!	!	!	!	!LO:N:acc=#	!	!	!	!	!
!	!	!	!	!	!	!LO:TX:a:t=P:problem=# above	!	!	!	!	!
1.G	-bu-	.	1.G	-bu-	.	1.Bn	-bu-	.	1.d	-bu-	.
2G\	-ſcu-	.	2G/	-ſcu-	.	2B\	-ſcu-	.	2d\	-ſcu-	.
1G	-la	.	1G	-la	.	1B	-la	.	1d	-la	.
=40	=40	=40	=40	=40	=40	=40	=40	=40	=40	=40	=40
!	!	!	!	!	!	!LO:N:acc=#	!	!	!	!	!
!	!	!	!	!	!	!LO:TX:a:t=P:problem=# above	!	!	!	!	!
1G	qua(m)	.	1B-	qua(m)	.	1Bn	qua(m)	.	1d	qua(m)	.
1G	nul-	.	1B-	nul-	.	1c	.	.	1e	nul-	.
1F	-la	.	1A-X	-la	.	1d	.	.	1f	-la	.
=41	=41	=41	=41	=41	=41	=41	=41	=41	=41	=41	=41
1.E-X	l(ae)-	.	1.G	l(ae)-	.	0e-X	nul-	.	0g	l(ae)-	.
2E-\	-dunt	.	2G/	-dunt	.	.	.	.	.	.	.
2F\	.	.	2A/	.	.	1d	-la	.	1f	.	.
2G\	.	.	2B-/	.	.	.	.	.	.	.	.
=42-	=42-	=42-	=42	=42	=42	=42	=42	=42	=42	=42	=42
*	*	*	*	*ij	*	*	*	*	*	*	*
0A-X	l(ae)-	.	0c	nul-	.	0c	l(ae)-	.	1e	-dunt	.
*	*	*	*	*	*	*	*	*	*	*ij	*
.	.	.	.	.	.	.	.	.	1f	nul-	.
1G	.	.	1B-	-la	.	1B-	-du(n)t	.	1g	-la	.
=43	=43	=43	=43	=43	=43	=43	=43	=43	=43	=43	=43
!	!	!	!	!	!	!	!	!	!LO:TX:a:t=P:problem=♭ above	!	!
(1.F	.	.	0c	l(ae)-	.	1.c	nul-	.	0.a-X	l(ae)-	.
2E\	.	.	.	.	.	4d\	-la	.	.	.	.
.	.	.	.	.	.	4e\	.	.	.	.	.
1D	.	.	1d	.	.	1f	l(ae)-	.	.	.	.
=44	=44	=44	=44	=44	=44	=44	=44	=44	=44-	=44-	=44-
!LO:TX:a:t=P:problem=♭ above	!	!	!	!	!	!	!	!	!	!	!
1E-X)	-dunt	.	1B-X	-dunt	.	1e-X	-du(n)t	.	1g	-dunt	.
*	*	*	*	*Xij	*	*	*	*	*	*Xij	*
1.BB-	Vin-	.	1.B-	Vin-	.	1.e-	Vin-	.	1.f	Vin-	.
2BB-/	-cu-	.	2B-\	-cu-	.	2d\	-cu-	.	2f\	-cu-	.
=45-	=45-	=45-	=45-	=45-	=45-	=45-	=45-	=45-	=45	=45	=45
!	!	!	!	!	!	!	!	!	!LO:TX:a:t=P:problem=♭ above	!	!
0.E-	-la	.	0.B-	-la	.	0.e-X	-la	.	0.e-X	-la	.
=46	=46	=46	=46	=46	=46	=46	=46	=46	=46	=46	=46
!	!	!	!LO:TX:a:t=1.	!	!	!LO:TX:a:t=P:problem=♭ above	!	!	!	!	!
0.r	.	.	0.r	.	.	1e-X	ſub	.	1g	ſub	.
.	.	.	.	.	.	(2d\	a-	.	(2f\	a-	.
.	.	.	.	.	.	2e-\)	.	.	2g\)	.	.
.	.	.	.	.	.	(2d\	-ſtra	.	(2f\	-ſtra	.
.	.	.	.	.	.	2c\)	.	.	2e\)	.	.
=47	=47	=47	=47	=47	=47	=47	=47	=47	=47	=47	=47
1G	ſub	.	1B-	ſub	.	0B-	pro-	.	0d	pro-	.
(2F\	aſ-	.	(2A\	a-	.	.	.	.	.	.	.
2G\)	.	.	2B-\)	.	.	.	.	.	.	.	.
(2F\	-tra	.	(2A\	-ſtra	.	1B-	-de(n)s	.	1d	-dens	.
!LO:TX:a:t=P:problem=♭ above	!	!	!	!	!	!	!	!	!	!	!
2E-X\)	.	.	2G\)	.	.	.	.	.	.	.	.
=48	=48	=48	=48	=48	=48	=48	=48	=48	=48	=48	=48
1D	pro-	.	1F	pro-	.	1d	ſub	.	1f	ſub	.
!	!	!	!	!	!	!	!	!	!LO:TX:a:t=P:problem=♭ above	!	!
0E-X	-de(n)s	.	1.G	-dens	.	(2c\	a-	.	(2e-X\	a-	.
.	.	.	.	.	.	2d\)	.	.	2f\)	.	.
.	.	.	.	.	.	(2c\	-ſtra	.	(2e-\	-ſtra	.
.	.	.	2G/	ſub	.	2B-\)	.	.	2d\)	.	.
=49	=49	=49	=49	=49	=49	=49	=49	=49	=49	=49	=49
1.F	pro-	.	(1.A	a-	.	1A	pro-	.	1c	pro-	.
.	.	.	.	.	.	2B-\	.	.	2d\	.	.
2G\	.	.	2B-/)	.	.	2c\	.	.	2e\	.	.
2F\	.	.	(2A/	-ſtra	.	2B-\	.	.	2d\	.	.
2E\	.	.	2G/)	.	.	2c\	.	.	2e\	.	.
=50	=50	=50	=50	=50	=50	=50	=50	=50	=50	=50	=50
1.D	.	.	0F	pro-	.	2d\	.	.	2f\	.	.
!	!	!	!	!	!	!LO:TX:a:t=P:problem=♭ above	!	!	!	!	!
.	.	.	.	.	.	2e-X\	.	.	2g\	.	.
.	.	.	.	.	.	2d\	.	.	2f\	.	.
4E\	.	.	.	.	.	2c\	.	.	2e\	.	.
4F\	.	.	.	.	.	.	.	.	.	.	.
1G	.	.	1G	.	.	2B-\	.	.	2d\	.	.
.	.	.	.	.	.	2A\	.	.	2c\	.	.
=51	=51	=51	=51	=51	=51	=51	=51	=51	=51	=51	=51
1E-X	-de(n)s	.	1G	-dens	.	(2G/	-dens	.	2e\	-dens	.
.	.	.	.	.	.	2B-/)	.	.	2d\	.	.
1.F	Li-	.	1.F	Li-	.	1.B-	li-	.	1.c	li-	.
2F\	-li-	.	2F/	-li-	.	2A\	-li-	.	2c/	-li-	.
=52	=52	=52	=52	=52	=52	=52	=52	=52	=52	=52	=52
0.BB-	-um	.	0.F	-um	.	0.d	-um	.	0.B-	-u(m)	.
=53	=53	=53	=53	=53	=53	=53	=53	=53	=53	=53	=53
1F	ca-	.	1A-X	Ca-	.	1f	ca-	.	1a-X	ca-	.
!	!	!	!	!	!	!LO:TX:a:t=P:problem=♭ above	!	!	!	!	!
1.G	-put	.	1.B-X	-put	.	1.e-X	.	.	1.g	-put	.
2G\	Co-	.	2B-\	co-	.	2d\	-put	.	2f\	co-	.
=54-	=54-	=54-	=54	=54	=54	=54	=54	=54	=54	=54	=54
0A-X	-ro-	.	0c	-ro-	.	0c	Co-	.	0e	-ro-	.
!	!	!	!	!	!	!	!	!	!LO:TX:a:t=vi	!	!
1A-	-nans	.	1c	-nans	.	1c	-ro-	.	1e	-nanſ	.
!	!	!	!	!	!	!	!	!	!LO:LB:g=original	!	!
=55-	=55-	=55-	=55	=55	=55	=55	=55	=55	=55	=55	=55
*	*ij	*	*	*ij	*	*	*	*	*	*	*
!	!	!	!	!	!	!	!	!	!LO:TX:t=P:problem=t. 55-58 zapisane poniżej	!	!
!	!	!	!	!	!	!LO:TX:a:t=P:problem=♭ above	!	!	!LO:TX:a:t=de	!	!
1E-X	ca-	.	1G	ca-	.	1e-X	-na(n)s	.	1g	Ca-	.
*	*	*	*	*	*	*	*ij	*	*	*	*
1.F	-put	.	1.A	-put	.	1.d	Co-	.	1.f	-put	.
2c\	co-	.	2A\	co-	.	2c\	.	.	2e\	co-	.
=56	=56	=56	=56	=56	=56	=56	=56	=56	=56	=56	=56
!LO:TX:a:t=P:problem=♭ above	!	!	!	!	!	!	!	!	!	!	!
1.B-X	-ro-	.	(1B-	-ro-	.	1.d	-ro-	.	1.f	-ro-	.
.	.	.	1B-	.	.	.	.	.	.	.	.
2A\	.	.	.	.	.	4e\	-na(ns)	.	4g\	.	.
*	*	*	*	*	*	*	*Xij	*	*	*	*
.	.	.	.	.	.	4f\	.	.	4a\	.	.
1G	.	.	1B-)	.	.	1g	ſy-	.	1b-	.	.
=57	=57	=57	=57	=57	=57	=57	=57	=57	=57	=57	=57
1F	-nans	.	1c	-nans	.	1f	.	.	1a	-nanſ	.
*	*Xij	*	*	*Xij	*	*	*	*	*	*	*
1.C	ſy-	.	1.c	ſy-	.	1.f	-(d)e-	.	1.g	ſy-	.
!	!	!	!	!	!	!LO:N:acc=#	!	!	!	!	!
!	!	!	!	!	!	!LO:TX:b:t=P:problem=# below	!	!	!	!	!
2C/	-de-	.	2c\	-de-	.	2en\	.	.	2g\	-de-	.
=58	=58	=58	=58-	=58-	=58-	=58-	=58-	=58-	=58	=58	=58
0.F;<	-rum	.	0.c	-rum	.	0.f;	-ru(m)	.	0.f;;	-ru(m)	.
!LO:LB:g=original	!	!	!LO:LB:g=original	!	!	!LO:LB:g=original	!	!	!LO:LB:g=original	!	!
=59||-	=59||-	=59||-	=59||-	=59||-	=59||-	=59||-	=59||-	=59||-	=59||-	=59||-	=59||-
*M4/4	*	*	*M4/4	*	*	*M4/4	*	*	*M4/4	*	*
*met(c)	*	*	*met(c)	*	*	*met(c)	*	*	*met(c|)	*	*
!	!	!	!	!	!	!	!	!	!LO:N:acc=#	!	!
4F\	5 Ma-	.	4c\	5 Ma-	.	4f\	5 Ma-	.	4an\	5 Ma-	.
8F\	-ri-	.	8c\	-ri-	.	8f\	-ri-	.	8any\	-ri-	.
8F\	-a	.	8c\	-a	.	8f\	-a	.	8any\	-a	.
!	!	!	!	!	!	!	!	!	!LO:TX:a:t=P:problem=♭ above	!	!
4BB-/	dul-	.	4B-\	dul-	.	4d\	dul-	.	4b-X\	dul-	.
4F\	-cor	.	4c\	-cor	.	4f\	-cor	.	4a,\	-cor	.
=60	=60	=60	=60	=60	=60	=60	=60	=60	=60	=60	=60
!	!	!	!	!	!	!LO:N:acc=#	!	!	!	!	!
!	!	!	!	!	!	!LO:TX:a:t=P:problem=# above	!	!	!	!	!
4.C/	cor-	.	4.c\	cor-	.	4.en\	cor-	.	4.g\	cor-	.
8C/	-di-	.	8c\	-di-	.	8e\	-di-	.	8g\	-di-	.
4C/	-u(m)	.	4c\	-um	.	4e\	-u(m)	.	4g,\	-u(m),	.
8AA/	mu(n)-	.	8c\	mun-	.	8f\	mun-	.	8a\	Mun-	.
8AA/	-di	.	8c\	-di	.	8f\	-di	.	8a\	-di	.
=61	=61	=61	=61	=61	=61	=61	=61	=61	=61	=61	=61
8BB-/	f(ae)-	.	8B-\	f(ae)-	.	8d\	f(ae)-	.	8f\	fe-	.
8BB-/	-lix	.	8B-\	-lix	.	8d\	-lix	.	8f\	-lix	.
*	*ij	*	*	*ij	*	*	*ij	*	*	*ij	*
8GG/	mun-	.	8B-\	mun-	.	8d\	mun-	.	8b-X\	mun-	.
8GG/	-di	.	8B-\	-di	.	8d\	-di	.	8b-\	-di	.
4C/	f(ae)-	.	4c\	f(ae)-	.	4e\	f(ae)-	.	4g\	fe-	.
8AA/	-lix	.	8c\	-lix	.	8c\	-lix	.	8a\	-lix	.
*	*Xij	*	*	*Xij	*	*	*Xij	*	*	*Xij	*
8FF/	e-	.	8c\	e-	.	8f\	e-	.	8a\	e-	.
=62	=62	=62	=62	=62	=62	=62	=62	=62	=62	=62	=62
4BB-/	-xor-	.	4d\	-xor-	.	4.f\	-xor-	.	4.g\	-xor-	.
8.C/	.	.	8.c\	-di-	.	.	.	.	.	.	.
!	!	!	!	!	!	!LO:N:acc=#	!	!	!	!	!
!	!	!	!	!	!	!LO:TX:b:t=P:problem=# below	!	!	!	!	!
.	.	.	.	.	.	8en\	-di-	.	8g\	-di-	.
16C/	-di-	.	16c\	-um	.	.	.	.	.	.	.
8F,\	-um	.	8A/	gem-	.	2f\	-um	.	8f\	-u(m)	.
!LO:TX:a:t=P:problem=# above	!	!	!	!	!	!	!	!	!	!	!
8F#X\	gem-	.	8A/	-mans	.	.	.	.	8a\	gem-	.
8F#\	-ma(n)s	.	8A/	.	.	.	.	.	8a\	-manſ	.
8F#\	ru-	.	8A/	.	.	.	.	.	8a\	r[u]-	.
=63	=63	=63	=63	=63	=63	=63	=63	=63	=63	=63	=63
16G\LL	-be-	.	16B-\LL	.	.	1r	.	.	2g\	-b[e]-	.
16A#X\	.	.	16A\	.	.	.	.	.	.	.	.
16G\	.	.	16B-\	.	.	.	.	.	.	.	.
16F\JJ	.	.	16c\JJ	.	.	.	.	.	.	.	.
16G\LL	.	.	16B-\LL	.	.	.	.	.	.	.	.
16F\	.	.	16c\	.	.	.	.	.	.	.	.
16E\	.	.	16d\	.	.	.	.	.	.	.	.
16D\JJ	.	.	16B-\JJ	.	.	.	.	.	.	.	.
!	!	!	!	!	!	!	!	!	!LO:LB:g=original	!	!
4An\	.	.	4c#X\	.	.	.	.	.	4e\	-to,	.
8A\	-to	.	8c#\	to	.	.	.	.	8e\	ru-	.
8E\	ru-	.	8e\	ru-	.	.	.	.	8f\	.	.
=64-	=64-	=64-	=64	=64	=64	=64	=64	=64	=64	=64	=64
4A^\	-be-	.	8c#X\	-be-	.	2r	.	.	4g\	-be-	.
.	.	.	8c#\	-to	.	.	.	.	.	.	.
4D\	-to	.	2d\	li-	.	.	.	.	4f\	-to	.
4.AA/	li-	.	.	.	.	8r	.	.	4.e\	li-	.
!	!	!	!	!	!	!LO:N:acc=#	!	!	!	!	!
!	!	!	!	!	!	!LO:TX:a:t=P:problem=# above	!	!	!	!	!
.	.	.	.	.	.	8en\	gem-	.	.	.	.
.	.	.	4c#\	-li-	.	8e\	-ma(n)s	.	.	.	.
8AA/	-li-	.	.	.	.	8e\	.	.	8e\	-li-	.
=65	=65	=65	=65	=65	=65	=65	=65	=65	=65	=65	=65
8D/	-um	.	2d\	-um	.	16d\LL	be-	.	8d,\	-u(m)	.
.	.	.	.	.	.	16c\	.	.	.	.	.
8D/	gem-	.	.	.	.	16d\	.	.	8f\	ger-	.
.	.	.	.	.	.	16e\JJ	.	.	.	.	.
8D/	-ma(n)s	.	.	.	.	16d\LL	.	.	8f\	-(m)anſ	.
.	.	.	.	.	.	16c\	.	.	.	.	.
8D/	ru-	.	.	.	.	16A\	.	.	8f\	ru-	.
.	.	.	.	.	.	16B-\JJ	.	.	.	.	.
16C/LL	-be-	.	2r	.	.	4c\	.	.	16e\LL	-be-	.
16BB-/	.	.	.	.	.	.	.	.	16d\	.	.
16C/	.	.	.	.	.	.	.	.	16e\	.	.
16D/JJ	.	.	.	.	.	.	.	.	16f\JJ	.	.
16C/LL	.	.	.	.	.	4G/	-to	.	8e\L	.	.
16D/	.	.	.	.	.	.	.	.	.	.	.
16C/	.	.	.	.	.	.	.	.	16f\L	.	.
16BB-/JJ	.	.	.	.	.	.	.	.	16e\JJ	-to	.
=66	=66	=66	=66	=66	=66	=66	=66	=66	=66	=66	=66
2AA/	.	.	8r	.	.	8r	.	.	4d\	li-	.
.	.	.	8A/	gem	.	8c\	gem-	.	.	.	.
.	.	.	8A/	(m)ans	.	8c\	-ma(n)s	.	8d\	-li-	.
.	.	.	8A/	ru-	.	8c\	ru-	.	8d\	-u(m)	.
4.BB-,</	-to	.	16G/LL	-be-	.	16B-\LL	-be-	.	2r	.	.
.	.	.	16F/	.	.	16A\	.	.	.	.	.
.	.	.	16G/	.	.	16B-\	.	.	.	.	.
.	.	.	16A/JJ	.	.	16c\JJ	.	.	.	.	.
.	.	.	16G/LL	.	.	16B-\LL	.	.	.	.	.
.	.	.	16A/	.	.	16c\	.	.	.	.	.
8BB-/	ru-	.	16G/	.	.	16B-\	.	.	.	.	.
.	.	.	16F/JJ	.	.	16A\JJ	.	.	.	.	.
=67	=67	=67	=67	=67	=67	=67	=67	=67	=67	=67	=67
4C/	-be-	.	16E/LL	.	.	16G/LL	.	.	1r	.	.
.	.	.	16D/	.	.	16F/	.	.	.	.	.
.	.	.	16E/	.	.	16G/	.	.	.	.	.
.	.	.	16F/JJ	.	.	16A/JJ	.	.	.	.	.
4GG/	-to	.	8G/	.	.	8B-/	.	.	.	.	.
.	.	.	8G/	-to	.	8B-/	-to	.	.	.	.
!	!	!	!LO:LB:g=original	!	!	!	!	!	!	!	!
=-	=-	=-	=-	=-	=-	=-	=-	=-	=-	=-	=-
4.D/	li-	.	4.G/	li-	.	4.A/	li-	.	.	.	.
8D/	-li-	.	8F#X/	-li-	.	8A/	-li-	.	.	.	.
=68	=68	=68	=68	=68	=68	=68	=68	=68	=68	=68	=68
8GG,</	-um	.	4G/	-um	.	2G/	-um	.	8r	.	.
*	*ij	*	*	*	*	*	*	*	*	*	*
8B-\	gem-	.	.	.	.	.	.	.	8g\	gem-	.
8G\	-mans	.	8G/	li-	.	.	.	.	8g\	-manſ	.
8B-\	ru-	.	8G/	-li-	.	.	.	.	8g\	ru-	.
16A\LL	-be-	.	2D/	-um	.	2r	.	.	16f\LL	-be-	.
16G\	.	.	.	.	.	.	.	.	16e\	.	.
16A\	.	.	.	.	.	.	.	.	16f\	.	.
16B-\JJ	.	.	.	.	.	.	.	.	16g\JJ	.	.
16A\LL	.	.	.	.	.	.	.	.	16f\LL	.	.
16B-\	.	.	.	.	.	.	.	.	16a\	.	.
16A\	.	.	.	.	.	.	.	.	16g\	.	.
16G\JJ	.	.	.	.	.	.	.	.	16f\JJ	.	.
=69	=69	=69	=69	=69	=69	=69	=69	=69	=69	=69	=69
4F\	.	.	8r	.	.	8r	.	.	8e\L	-to	.
*	*	*	*	*	*	*	*ij	*	*	*	*
.	.	.	8d\	gem-	.	8f\	gem-	.	8d\J	.	.
!	!	!	!	!	!	!	!	!	!LO:TX:t=P:problem=mixed beam	!	!
4BB-/	-to	.	8d\	-ma(n)s	.	8f\	-mans	.	8c\L	.	.
*	*	*	*	*	*	*custos:e	*	*	*	*	*
.	.	.	8d\	ru-	.	8f\	ru-	.	8B-/J	.	.
!	!	!	!	!	!	!LO:LB:g=original	!	!	!	!	!
=-	=-	=-	=-	=-	=-	=-	=-	=-	=-	=-	=-
4.C/	li-	.	16c\LL	-be-	.	16e-X\LL	-be-	.	8.A/	li-	.
*	*	*	*	*	*	*	*Xij	*	*	*	*
.	.	.	16B-\	.	.	16d\	.	.	.	.	.
.	.	.	16c\	.	.	16e-\	.	.	.	.	.
.	.	.	16d\JJ	.	.	16f\JJ	.	.	16A/	-li-	.
.	.	.	16c\LL	.	.	16e-\LL	.	.	4A/	-u(m)	.
.	.	.	16d\	.	.	16f\	.	.	.	.	.
8C/	-li-	.	16c\	.	.	16e-\	.	.	.	.	.
.	.	.	16B-\JJ	.	.	16d\JJ	.	.	.	.	.
=70	=70	=70	=70	=70	=70	=70	=70	=70	=70	=70	=70
8F\	-um	.	4.A\	.	.	2c\	-to	.	8r	.	.
*	*Xij	*	*	*	*	*	*	*	*	*	*
8F\	gem-	.	.	.	.	.	.	.	8a\	gem-	.
8F\	-mans	.	.	.	.	.	.	.	8a\	-manſ	.
*custos:G	*	*	*	*	*	*	*	*	*	*	*
8F\	ru-	.	8A\	-to	.	.	.	.	8a\	ru-	.
!LO:LB:g=original	!	!	!	!	!	!	!	!	!	!	!
=-	=-	=-	=-	=-	=-	=-	=-	=-	=-	=-	=-
16G\LL	-be-	.	4.d\	li-	.	2B-\	ru-	.	16g\LL	-be-	.
16F\	.	.	.	.	.	.	.	.	16a\	.	.
16G\	.	.	.	.	.	.	.	.	16g\	.	.
16A\JJ	.	.	.	.	.	.	.	.	16f\JJ	.	.
16G\LL	.	.	.	.	.	.	.	.	8g\	.	.
16B-\	.	.	.	.	.	.	.	.	.	.	.
!	!	!	!	!	!	!	!	!	!LO:TX:t=P:problem=nuta niewidoczna - zagięcie karty	!	!
16A\	.	.	8d\	-li-	.	.	.	.	8f\yy	.	.
16G\JJ	.	.	.	.	.	.	.	.	.	.	.
=71	=71	=71	=71	=71	=71	=71	=71	=71	=71	=71	=71
!	!	!	!	!	!	!	!	!	!LO:LB:g=original	!	!
4A\	.	.	4c#X\	-um	.	4A\	-be-	.	8f\L	-to	.
.	.	.	.	.	.	.	.	.	8e\	.	.
4D\	-to	.	2A/	li-	.	4d\	-to	.	8f\	.	.
.	.	.	.	.	.	.	.	.	8g\J	.	.
4.A\	li-	.	.	.	.	4.c#X\	li-	.	4.e\	li-	.
.	.	.	4A/	-li-	.	.	.	.	.	.	.
8A\	-li-	.	.	.	.	8c#\	-li-	.	8e\	-li-	.
=72	=72	=72	=72	=72	=72	=72	=72	=72	=72	=72	=72
!	!	!	!LO:LB:g=original	!	!	!	!	!	!	!	!
8A,\	-um	.	2A/	-um	.	4c\	-um	.	8e,\	-u(m)	.
8A\	flo-	.	.	.	.	.	.	.	8e\	flo-	.
8A\	-rem	.	.	.	.	4r	.	.	8f\	-re(m)	.
8G\	e-	.	.	.	.	.	.	.	8g\	e-	.
2F\	-ni-	.	2r	.	.	8r	.	.	2a\	-ni-	.
!	!	!	!	!	!	!LO:N:acc=-	!	!	!	!	!
!	!	!	!	!	!	!LO:TX:a:t=P:problem=♭ above	!	!	!	!	!
.	.	.	.	.	.	8cn\	flo-	.	.	.	.
.	.	.	.	.	.	8d\	-rem	.	.	.	.
.	.	.	.	.	.	8e\	e-	.	.	.	.
=73	=73	=73	=73	=73	=73	=73	=73	=73	=73	=73	=73
8D,</	-xa	.	8r	.	.	2f\	-ni-	.	8f\	-xa	.
*	*ij	*	*	*	*	*	*	*	*	*ij	*
8D/	flo-	.	8F/	flo-	.	.	.	.	8d\	flo-	.
8D/	-rem	.	8G/	-rem	.	.	.	.	8e\	-re(m)	.
8C/	e-	.	8A/	e-	.	.	.	.	8f\	e-	.
4BB-X/	-ni-	.	[2B-X/	-ni-	.	4d\	-xa	.	2g\	-ni-	.
*	*	*	*	*	*	*	*ij	*	*	*	*
4BB-/	-xa	.	.	.	.	4d\	e-	.	.	.	.
*	*Xij	*	*	*	*	*	*	*	*	*	*
=74	=74	=74	=74	=74	=74	=74	=74	=74	=74	=74	=74
2.C/	fi-	.	4B-/]	.	.	4G/	-ni-	.	4e,\	-xa	.
*	*	*	*	*	*	*	*	*	*	*Xij	*
.	.	.	4A/	-xa	.	4c\	-xa	.	2f\	Fi-	.
*	*	*	*	*	*	*	*Xij	*	*	*	*
.	.	.	4.G/	fi-	.	4.c\	fi-	.	.	.	.
4C/	-li-	.	.	.	.	.	.	.	4e\	-li-	.
.	.	.	8G/	-li-	.	8c\	-li-	.	.	.	.
=75	=75	=75	=75	=75	=75	=75	=75	=75	=75	=75	=75
!LO:N:vis=0	!	!	!LO:N:vis=0	!	!	!LO:N:vis=0	!	!	!LO:N:vis=0	!	!
1FF;;	-um	.	1A;;	-um.	.	1c;;	-um	.	1f;;	-um	.
!LO:PB:g=original	!	!	!LO:PB:g=original	!	!	!LO:PB:g=original	!	!	!LO:PB:g=original	!	!
==	==	==	==	==	==	==-	==-	==-	==	==	==
*-	*-	*-	*-	*-	*-	*-	*-	*-	*-	*-	*-
!!!system-decoration: [(s1,s2,s3,s4)]
!!!RDF**kern: < = below
!!!ENC: Marta Chmielewska
!!!END: 2021-04-02
!!!ENC: Mateusz Solarz
!!!END: 2021-03-24
!!!YEC: Copyright 2022 Narodowy Instytut Fryderyka Chopina (https://polishscores.org)
!!!YEM: Licence CC BY 4.0 (https://creativecommons.org/licenses/by/4.0)
